icons/figma.svg

<svg width="24" height="24" viewBox="0 0 24 24" fill="none" xmlns="http://www.w3.org/2000/svg">
<path fill-rule="evenodd" clip-rule="evenodd" d="M11 2.00049H9.00001C8.1875 2.00044 7.39424 2.24782 6.7258 2.70972C6.05736 3.17163 5.54543 3.82614 5.25814 4.58616C4.97086 5.34618 4.92183 6.17567 5.11759 6.96424C5.31336 7.75281 5.74463 8.46307 6.35401 9.00049C5.92792 9.37546 5.58674 9.83703 5.35325 10.3544C5.11976 10.8717 4.99933 11.4329 5.00001 12.0005C4.99933 12.5681 5.11976 13.1293 5.35325 13.6466C5.58674 14.1639 5.92792 14.6255 6.35401 15.0005C5.85275 15.4426 5.47028 16.0033 5.24154 16.6313C5.0128 17.2594 4.94508 17.9347 5.04456 18.5956C5.14405 19.2566 5.40757 19.8821 5.81105 20.4149C6.21453 20.9478 6.74511 21.3711 7.35431 21.646C7.9635 21.921 8.6319 22.039 9.29842 21.9891C9.96494 21.9393 10.6083 21.7232 11.1698 21.3606C11.7313 20.998 12.193 20.5005 12.5127 19.9136C12.8324 19.3266 13 18.6689 13 18.0005V15.4655C13.8593 15.9628 14.8727 16.1228 15.8434 15.9144C16.8141 15.706 17.6726 15.144 18.2519 14.3378C18.8313 13.5316 19.0902 12.5388 18.9782 11.5523C18.8662 10.5659 18.3914 9.6563 17.646 9.00049C18.2554 8.46307 18.6867 7.75281 18.8824 6.96424C19.0782 6.17567 19.0292 5.34618 18.7419 4.58616C18.4546 3.82614 17.9427 3.17163 17.2742 2.70972C16.6058 2.24782 15.8125 2.00044 15 2.00049H11ZM13 4.00049V8.00049H15C15.5304 8.00049 16.0391 7.78977 16.4142 7.4147C16.7893 7.03963 17 6.53092 17 6.00049C17 5.47006 16.7893 4.96135 16.4142 4.58627C16.0391 4.2112 15.5304 4.00049 15 4.00049H13ZM11 10.0005H9.00001C8.46957 10.0005 7.96086 10.2112 7.58579 10.5863C7.21072 10.9613 7.00001 11.4701 7.00001 12.0005C7.00001 12.5309 7.21072 13.0396 7.58579 13.4147C7.96086 13.7898 8.46957 14.0005 9.00001 14.0005H11V10.0005ZM9.00001 8.00049H11V4.00049H9.00001C8.46957 4.00049 7.96086 4.2112 7.58579 4.58627C7.21072 4.96135 7.00001 5.47006 7.00001 6.00049C7.00001 6.53092 7.21072 7.03963 7.58579 7.4147C7.96086 7.78977 8.46957 8.00049 9.00001 8.00049ZM13 12.0005C13 12.5309 13.2107 13.0396 13.5858 13.4147C13.9609 13.7898 14.4696 14.0005 15 14.0005C15.5304 14.0005 16.0391 13.7898 16.4142 13.4147C16.7893 13.0396 17 12.5309 17 12.0005C17 11.4701 16.7893 10.9613 16.4142 10.5863C16.0391 10.2112 15.5304 10.0005 15 10.0005C14.4696 10.0005 13.9609 10.2112 13.5858 10.5863C13.2107 10.9613 13 11.4701 13 12.0005ZM9.00001 16.0005H11V18.0005C11 18.3961 10.8827 18.7827 10.6629 19.1116C10.4432 19.4405 10.1308 19.6969 9.76537 19.8482C9.39992 19.9996 8.99779 20.0392 8.60982 19.9621C8.22186 19.8849 7.8655 19.6944 7.58579 19.4147C7.30609 19.135 7.11561 18.7786 7.03843 18.3907C6.96126 18.0027 7.00087 17.6006 7.15225 17.2351C7.30362 16.8697 7.55997 16.5573 7.88887 16.3375C8.21776 16.1178 8.60444 16.0005 9.00001 16.0005Z" fill="black"/>
</svg>

<svg
  width="24"
  height="24"
  viewBox="0 0 24 24"
  xmlns="http://www.w3.org/2000/svg"
>
  <path
    fill-rule="evenodd"
    clip-rule="evenodd"
    d="M11 2H9a4 4 0 0 0-2.646 7A3.99 3.99 0 0 0 5 12a3.99 3.99 0 0 0 1.354 3A4 4 0 1 0 13 18v-2.534A4 4 0 0 0 17.646 9 4 4 0 0 0 15 2h-4zm2 2v4h2a2 2 0 0 0 0-4h-2zm-2 6H9a2 2 0 1 0 0 4h2v-4zM9 8h2V4H9a2 2 0 1 0 0 4zm4 4a2 2 0 1 0 4 0 2 2 0 0 0-4 0zm-4 4h2v2a2 2 0 1 1-2-2z"
  />
</svg>
